X:1
T:Interdette speranze
T:Interdette speranze
T:Piero Benedetti
T:Part 1
T:Source : Musiche di P.Benedetti---Libro secondo---Venetia---R.Amadino---1613. Editor : André Vierendeels (16/03/16).
T:Notes : Original clefs : C1, F4 Editorial accidentals above the staff Figures in BC are notated in original print Composer called Pietro in this print Text by Jacopo Sannazaro (Scelta di sonette) Part 2 : "Es'al mio mal" (same composer) Part 3 : "Usin le stelle" (same composer) Part 4 : "Gett'amor l'arco" (same composer) The 4 parts are separate notated in original print
T:©
T:©
C:Piero Benedetti
Z:©
%%score 1 2
L:1/8
Q:1/4=120
M:4/4
K:C
V:1 treble nm="Soprano" snm="S"
V:2 bass nm="MusicXML Part"
V:1
 A2 A2 A2 AA | A>B A>B c>B cd | e4 A4 | z2 F2- F4 | F/E/D/E/ F/G/F/G/ A/B/ c2 F | G8 | G8 | %7
w: In- ter- det- te spe-|ran- * * * * * * *|* ze|e _|van _ _ _ _ _ _ _ _ _ _ de-|si-|o,|
 z2 G2 G4 | z2 A2 F4 | F4 z ABc | d3 c A4- | A2 ^G2 A4 | z2 c4 B>A | A4 A4 | z2 A2 A2 G2 | %15
w: pen- sier|fal- la-|ce in- gor- d'è|cie- che vo-|* glie, _|la- gri- me|tri- ste|e voi, so-|
 F3 E E4 | E4 F2 AB | c6 c2 | _B2 A2 G4- | G4 F4 | E8 | D8 | z2 d6- | d2 _BG A4 | A4 z2 A2 | %25
w: spi- ri'e do-|glie, dat' ho- mai|pa- ce'al|las- so vi-|* ver|mi-|o,|dat'|_ ho- mai pa-|ce al|
 d3 c _B3 E | E8 | D8 |] %28
w: las- so vi- ver|mi-|o.|
V:2
 A,,8 | A,,8- | A,,8 | F,8 | F,8 |"^4" C,4 C,4 | C,8 | C,8 | ^C,4 D,4 | D,4 D,4 |"^4" D,4 E,4 | %11
"^#""^#" E,4 A,,4 | F,8 | F,8 |"^6" F,6 E,2 |"^7""^6" D,2 D,2 C,4 | C,4 D,4 |"^6" E,4 ^F,4 | %18
 G,6 G,,2 |"^#""^4" A,,4 A,,4 |"^#""^4" A,,4 A,,4 |"^#" D,8 |"^-natural" D,4 C,4 | %23
"^6""^#" _B,,2 B,,2 A,,4 | A,,4 F,4 |"^b" ^F,4 G,4 |"^4""^#" A,,4 A,,4 |"^(#)" D,8 |] %28

